X: 1
T: Mad Robin
O: 1686
M: C|
L: 1/8
% - - - - - - - - - - - - - - - - - - - - - - - - -
P: Mad Robin [Bb]
K: Bb
|: f2 \
| "Bb"f2 d4 "(Eb)"g2 | "Bb"f2 B4 c2 | "Bb"d2ed "(Gm)"c2B2 | "F7(Cm)"cBAG "F7"F4 \
| "Bb"f2 d4 "(Eb)"g2 | "Bb"f2 B4 c2 | "Bb"d2ed "F7"c3B | "Bb"B6 :|
|: f2 \
| "Gm"b3a "(Dm)"g2f2 | "Gm"g2 d4 =e2 | "D7"d2g2 g3^f | "Gm"g6 f2 \
| "Eb"f2 e2- "F7"e2d2 | "Bb"f2 d4 cB | "F7"A2G2 c3B | "Bb"B6 :|
% - - - - - - - - - - - - - - - - - - - - - - - - -
P: Mad Robin (F)
K: F
|: c2 \
| "F"c2 A4 "(Bb)"d2 | "F"c2 F4 G2 | "F"A2BA "(Dm)"G2F2 | "C7(Gm)"GFED "C7"C4 \
| "F"c2 A4 "(Bb)"d2 | "F"c2 F4 G2 | "F"A2BA "C7"G3F | "F"F6 :|
|: c2 \
| "Dm"f3e "(Am)"d2c2 | "Dm"d2 A4 =B2 | "A7"A2d2 d3^c | "Dm"d6 c2 \
| "Bb"c2 B2- "C7"B2A2 | "F"c2 A4 GF | "C7"E2D2 G3F | "F"F6 :|
% - - - - - - - - - - - - - - - - - - - - - - - - -
P: Mad Robin (C)
K: C
|: g2 \
| "C"g2 e4 "(F)"a2 | "C"g2 c4 d2 | "C"e2fe "(Am)"d2c2 | "G7(Dm)"dcBA "G7"G4 \
| "C"g2 e4 "(F)"a2 | "C"g2 c4 d2 | "C"e2fe "G7"d3c | "C"c6 :|
|: g2 \
| "Am"c'3b "(Em)"a2g2 | "Am"a2 e4 ^f2 | "E7"e2a2 a3^g | "Am"a6 g2 \
| "F"g2 f2- "G7"f2e2 | "C"g2 e4 dc | "G7"B2A2 d3c | "C"c6 :|
% - - - - - - - - - - - - - - - - - - - - - - - - -
P: Mad Robin (G)
K: G
|: d2 \
| "G"d2 B4 "(C)"e2 | "G"d2 G4 A2 | "G"B2cB "(Em)"A2G2 | "D7(Am)"AGFE "D7"D4 \
| "G"d2 B4 "(C)"e2 | "G"d2 G4 A2 | "G"B2cB "D7"A3G | "G"G6 :|
|: d2 \
| "Em"g3f "(Bm)"e2d2 | "Em"e2 B4 ^c2 | "B7"B2e2 e3^d | "Em"e6 d2 \
| "C"d2 c2- "D7"c2B2 | "G"d2 B4 AG | "D7"F2E2 A3G | "G"G6 :|

%%sep 1 1 500


